assets/images/avatar/Avatar 19.svg

<svg fill="none" height="128" viewBox="0 0 128 128" width="128" xmlns="http://www.w3.org/2000/svg" xmlns:xlink="http://www.w3.org/1999/xlink"><mask id="a" height="122" maskUnits="userSpaceOnUse" width="115" x="6" y="3"><path clip-rule="evenodd" d="m55.3738 3.10345c19.3776-1.04345 35.6979 12.69655 47.8022 27.85535 12.11 15.1665 21.212 33.9402 16.59 52.7863-4.553 18.5679-20.9204 31.6909-38.9034 38.2079-15.8826 5.755-33.1298 1.74-47.6868-6.829-12.9832-7.643-20.5914-20.8628-24.19496-35.4847-3.70112-15.018-3.37739-30.6294 4.64136-43.8581 9.6362-15.8973 23.1805-31.67774 41.7516-32.67775z" fill="#eff6f7" fill-rule="evenodd"/></mask><g mask="url(#a)"><path clip-rule="evenodd" d="m55.3738 3.10345c19.3776-1.04345 35.6979 12.69655 47.8022 27.85535 12.11 15.1665 21.212 33.9402 16.59 52.7863-4.553 18.5679-20.9204 31.6909-38.9034 38.2079-15.8826 5.755-33.1298 1.74-47.6868-6.829-12.9832-7.643-20.5914-20.8628-24.19496-35.4847-3.70112-15.018-3.37739-30.6294 4.64136-43.8581 9.6362-15.8973 23.1805-31.67774 41.7516-32.67775z" fill="#eff6f7" fill-rule="evenodd"/><path d="m42.9836 39.701c5.3151-12.2971 18.7794-16.0548 22.6651-12.9097 0 0 1.0606-3.584 7.4302-3.3097 3.1508.1595 6.238.9469 9.0803 2.316s5.3825 3.2923 7.4713 5.6566c7.2594 8.2712 8.5516 15.6404 8.2286 22.1257-.253 5.1627-44.5258 11.965-50.1364 9.0789-5.821-2.9958-7.4179-16.762-4.7391-22.9578z" fill="#28213d"/><path d="m53.2115 71.6706c0 8.4602 4.9767 17.92-2.557 24.8777-4.3642 4.0317-14.7688 4.2177-20.9463 6.6107-7.0095 2.709-14.2933 13.781-17.2099 24.819h99.6937c-1.749-6.305-2.767-11.431-5.035-16.091-4.9-10.057-17.6759-8.664-25.4107-16.3719-3.3067-3.2944-2.9471-14.534-1.5055-27.1481 1.2464-10.9136-27.0293-11.3951-27.0293 3.3036z" fill="#e7baef"/><path d="m112.195 127.972h-99.6998c2.9227-11.032 9.5544-21.232 17.2069-24.82 4.6507-2.179 9.4476-2.133 14.1196-3.3976 2.0186 1.1296 3.7742 2.6756 5.1505 4.5346 4.7086 6.415 8.0823 20.051 16.6644 20.051 1.1246 0 2.304-.305 3.6572-.747 8.9874-2.926 15.6342-22.367 21.6593-22.553 6.3543 2.557 12.9949 4.212 16.2139 10.841 2.261 4.669 3.279 9.795 5.028 16.091z" fill="#8a94af"/><path d="m79.3844 88.1948c-.1572-1.8241-.2193-3.6552-.1859-5.4857 0-2.816.198-6.0648.5516-9.725-8.2286.7101-18.1364.8594-26.3893 1.3562.1859 1.7615.512 3.4652.8106 5.1231.0488.2621.0945.5211.1402.7771l.0366.2164c.061.3657.1219.7284.1737 1.088.1189.7863.2072 1.5451.259 2.2948.0366.5913.0458 1.1734.0244 1.7524.0976 2.6118-.2163 5.1413-1.4445 7.4911 3.4621 5.0194 18.95 5.6228 26.0236-4.8884z" fill="#db9fe6"/><path d="m86.6469 57.0146c-.3932 2.8099 2.624 5.5223.7649 13.6808-1.8042 7.9238-11.0445 19.0232-15.6068 19.6754-2.6606.3779-14.6286-3.9223-20.7238-16.9356-3.1117-6.6499-3.5932-14.9608-3.517-17.2252.1097-3.3036 1.1825-6.2171 1.7097-9.0727 1.1398-6.1623 3.2335-10.5052 7.8445-11.9375 4.8-1.4964 11.6298-2.5753 18.938-.9143 6.2049 1.411 12.3947 9.8316 10.5905 22.7291z" fill="#e7baef"/><path d="m49.018 63.0458c-.0244-.0975-1.0027-1.4202-1.3989-1.9626-.768-1.0515-2.9318-2.5844-4.349-.7802-1.1154 1.4171.3566 4.6506 2.2248 7.4453 1.7341 2.5905 4.8457 4.5013 5.4339 4.541.5882.0396-1.5939-8.0579-1.9108-9.2435z" fill="#e7baef"/><path d="m47.5612 40.6123c4.4617-8.3322 14.9333-11.6998 21.2602-12.3794 6.211-.6644 13.8453.5821 20.2788 5.6045 6.8724 5.3608 8.1524 12.8427 8.6857 15.9361 1.6915 9.7981-4.6049 22.1744-9.923 24.9569 2.2125-5.4552-.4206-16.2255-6.0739-21.9977-.2194 2.0663.0761 4.3368 2.8373 8.1402-5.0164.4389-12.9371-2.2552-15.6343-11.0171-.9142 1.5939-.4815 4.4464 1.6031 8.5546-6.6103-.0244-13.3761-7.0765-12.7117-15.0552-6.2903 4.0198-6.7809 14.4823-7.5885 18.051-1.0088 4.4465-1.9901 1.728-2.7429-.7954-1.4507-4.803-3.6846-13.1017.0092-19.9985z" fill="#28213d"/></g></svg>

<svg width="128" height="128" viewBox="0 0 128 128" fill="none" xmlns="http://www.w3.org/2000/svg">
<mask id="mask0_457_1638" style="mask-type:alpha" maskUnits="userSpaceOnUse" x="6" y="3" width="115" height="122">
<path fill-rule="evenodd" clip-rule="evenodd" d="M55.3738 3.10345C74.7514 2.06 91.0717 15.8 103.176 30.9588C115.286 46.1253 124.388 64.899 119.766 83.7451C115.213 102.313 98.8456 115.436 80.8626 121.953C64.98 127.708 47.7328 123.693 33.1758 115.124C20.1926 107.481 12.5844 94.2612 8.98084 79.6393C5.27972 64.6213 5.60345 49.0099 13.6222 35.7812C23.2584 19.8839 36.8027 4.10346 55.3738 3.10345Z" fill="#EFF6F7"/>
</mask>
<g mask="url(#mask0_457_1638)">
<path fill-rule="evenodd" clip-rule="evenodd" d="M55.3738 3.10345C74.7514 2.06 91.0717 15.8 103.176 30.9588C115.286 46.1253 124.388 64.899 119.766 83.7451C115.213 102.313 98.8456 115.436 80.8626 121.953C64.98 127.708 47.7328 123.693 33.1758 115.124C20.1926 107.481 12.5844 94.2612 8.98084 79.6393C5.27972 64.6213 5.60345 49.0099 13.6222 35.7812C23.2584 19.8839 36.8027 4.10346 55.3738 3.10345Z" fill="#EFF6F7"/>
<path d="M42.9836 39.701C48.2987 27.4039 61.763 23.6462 65.6487 26.7913C65.6487 26.7913 66.7093 23.2073 73.0789 23.4816C76.2297 23.6411 79.3169 24.4285 82.1592 25.7976C85.0015 27.1667 87.5417 29.0899 89.6305 31.4542C96.8899 39.7254 98.1821 47.0946 97.8591 53.5799C97.6061 58.7426 53.3333 65.5449 47.7227 62.6588C41.9017 59.663 40.3048 45.8968 42.9836 39.701Z" fill="#28213D"/>
<path d="M53.2115 71.6706C53.2115 80.1308 58.1882 89.5906 50.6545 96.5483C46.2903 100.58 35.8857 100.766 29.7082 103.159C22.6987 105.868 15.4149 116.94 12.4983 127.978H112.192C110.443 121.673 109.425 116.547 107.157 111.887C102.257 101.83 89.4811 103.223 81.7463 95.5151C78.4396 92.2207 78.7992 80.9811 80.2408 68.367C81.4872 57.4534 53.2115 56.9719 53.2115 71.6706Z" fill="#E7BAEF"/>
<path d="M112.195 127.972H12.4952C15.4179 116.94 22.0496 106.74 29.7021 103.152C34.3528 100.973 39.1497 101.019 43.8217 99.7544C45.8403 100.884 47.5959 102.43 48.9722 104.289C53.6808 110.704 57.0545 124.34 65.6366 124.34C66.7612 124.34 67.9406 124.035 69.2938 123.593C78.2812 120.667 84.928 101.226 90.9531 101.04C97.3074 103.597 103.948 105.252 107.167 111.881C109.428 116.55 110.446 121.676 112.195 127.972Z" fill="#8A94AF"/>
<path d="M79.3844 88.1948C79.2272 86.3707 79.1651 84.5396 79.1985 82.7091C79.1985 79.8931 79.3965 76.6443 79.7501 72.9841C71.5215 73.6942 61.6137 73.8435 53.3608 74.3403C53.5467 76.1018 53.8728 77.8055 54.1714 79.4634C54.2202 79.7255 54.2659 79.9845 54.3116 80.2405L54.3482 80.4569C54.4092 80.8226 54.4701 81.1853 54.5219 81.5449C54.6408 82.3312 54.7291 83.09 54.7809 83.8397C54.8175 84.431 54.8267 85.0131 54.8053 85.5921C54.9029 88.2039 54.589 90.7334 53.3608 93.0832C56.8229 98.1026 72.3108 98.706 79.3844 88.1948Z" fill="#DB9FE6"/>
<path d="M86.6469 57.0146C86.2537 59.8245 89.2709 62.5369 87.4118 70.6954C85.6076 78.6192 76.3673 89.7186 71.805 90.3708C69.1444 90.7487 57.1764 86.4485 51.0812 73.4352C47.9695 66.7853 47.488 58.4744 47.5642 56.21C47.6739 52.9064 48.7467 49.9929 49.2739 47.1373C50.4137 40.975 52.5074 36.6321 57.1184 35.1998C61.9184 33.7034 68.7482 32.6245 76.0564 34.2855C82.2613 35.6965 88.4511 44.1171 86.6469 57.0146Z" fill="#E7BAEF"/>
<path d="M49.018 63.0458C48.9936 62.9483 48.0153 61.6256 47.6191 61.0832C46.8511 60.0317 44.6873 58.4988 43.2701 60.303C42.1547 61.7201 43.6267 64.9536 45.4949 67.7483C47.229 70.3388 50.3406 72.2496 50.9288 72.2893C51.517 72.3289 49.3349 64.2314 49.018 63.0458Z" fill="#E7BAEF"/>
<path d="M47.5612 40.6123C52.0229 32.2801 62.4945 28.9125 68.8214 28.2329C75.0324 27.5685 82.6667 28.815 89.1002 33.8374C95.9726 39.1982 97.2526 46.6801 97.7859 49.7735C99.4774 59.5716 93.181 71.9479 87.8629 74.7304C90.0754 69.2752 87.4423 58.5049 81.789 52.7327C81.5696 54.799 81.8651 57.0695 84.6263 60.8729C79.6099 61.3118 71.6892 58.6177 68.992 49.8558C68.0778 51.4497 68.5105 54.3022 70.5951 58.4104C63.9848 58.386 57.219 51.3339 57.8834 43.3552C51.5931 47.375 51.1025 57.8375 50.2949 61.4062C49.2861 65.8527 48.3048 63.1342 47.552 60.6108C46.1013 55.8078 43.8674 47.5091 47.5612 40.6123Z" fill="#28213D"/>
</g>
</svg>
